src/assets/svg/sun.svg

<svg width="256" height="257" viewBox="0 0 256 257" fill="none" xmlns="http://www.w3.org/2000/svg">
<circle cx="128" cy="128.5" r="95.8014" fill="#FFB531"/>
<path d="M128 26.436C74.5793 26.436 25.9362 67.2616 25.9362 128.5C25.9362 183.658 72.8421 230.564 128 230.564C183.158 230.564 230.064 185.395 230.064 128.5C230.064 71.6047 181.421 26.436 128 26.436Z" stroke="#FFB531" stroke-width="3" stroke-linecap="round" stroke-linejoin="round" stroke-dasharray="0.1 12"/>
<path d="M128 17.8447C69.9021 17.8447 17 62.2447 17 128.845C17 188.832 68.0128 239.845 128 239.845C187.987 239.845 239 190.721 239 128.845C239 66.9681 186.098 17.8447 128 17.8447Z" stroke="#FFB531" stroke-width="2" stroke-linecap="round" stroke-linejoin="round" stroke-dasharray="0.1 10"/>
<path d="M120.455 8.41747C57.603 12.3668 3.39042 63.9958 7.91768 136.045C11.9954 200.941 70.6499 252.66 135.545 248.582C200.441 244.504 252.289 187.894 248.082 120.954C243.876 54.0149 183.306 4.46816 120.455 8.41747Z" stroke="#FFB531" stroke-width="2" stroke-linecap="round" stroke-linejoin="round" stroke-dasharray="0.1 10"/>
</svg>

<svg width="256" height="257" fill="none"><circle cx="128" cy="128.5" r="95.801" fill="#FFB531"/><path stroke="#FFB531" stroke-dasharray="0.1 12" stroke-linecap="round" stroke-linejoin="round" stroke-width="3" d="M128 26.436c-53.42 0-102.064 40.826-102.064 102.064 0 55.158 46.906 102.064 102.064 102.064S230.064 185.395 230.064 128.5 181.421 26.436 128 26.436"/><path stroke="#FFB531" stroke-dasharray="0.1 10" stroke-linecap="round" stroke-linejoin="round" stroke-width="2" d="M128 17.845c-58.098 0-111 44.4-111 111 0 59.987 51.013 111 111 111s111-49.124 111-111c0-61.877-52.902-111-111-111"/><path stroke="#FFB531" stroke-dasharray="0.1 10" stroke-linecap="round" stroke-linejoin="round" stroke-width="2" d="M120.455 8.417C57.603 12.367 3.39 63.996 7.918 136.045c4.077 64.896 62.732 116.615 127.627 112.537 64.896-4.078 116.744-60.688 112.537-127.628S183.306 4.468 120.455 8.417"/></svg>
